public/tools-icons/convex.svg

<svg xmlns="http://www.w3.org/2000/svg" width="24" height="24" fill="none"><path fill="#26265a" d="M14.7699 18.0682C17.8968 17.7283 20.8449 16.0975 22.4681 13.3757C21.6993 20.1077 14.1779 24.3629 8.03849 21.7504C7.47277 21.5104 6.98581 21.1109 6.65163 20.5974C5.27194 18.4771 4.81841 15.7791 5.47006 13.3306C7.33193 16.4755 11.1177 18.4033 14.7699 18.0682Z"/><path fill="#26265a" d="M5.35594 11.3555C4.08842 14.2222 4.03353 17.5788 5.58747 20.341C0.118811 16.3143 0.178489 7.69709 5.52063 3.71064C6.01475 3.34218 6.60196 3.12348 7.21781 3.0902C9.75043 2.95945 12.3236 3.91745 14.1282 5.70268C10.4618 5.73832 6.89079 8.03702 5.35594 11.3555Z"/><path fill="#26265a" d="M15.8965 6.58459C14.0466 4.06007 11.1511 2.34141 7.97876 2.28912C14.111 -0.435084 21.6539 3.98163 22.4751 10.5116C22.5516 11.1178 22.4512 11.7358 22.1767 12.2826C21.031 14.5598 18.9065 16.3261 16.4241 16.9797C18.243 13.6779 18.0185 9.64395 15.8965 6.58459Z"/></svg>

<svg xmlns="http://www.w3.org/2000/svg" width="24" height="24" fill="none" viewBox="0 0 24 24"><path fill="#26265a" d="M14.77 18.068c3.127-.34 6.075-1.97 7.698-4.692-.769 6.732-8.29 10.987-14.43 8.374a3.1 3.1 0 0 1-1.386-1.153c-1.38-2.12-1.834-4.818-1.182-7.266 1.862 3.145 5.648 5.072 9.3 4.737"/><path fill="#26265a" d="M5.356 11.356c-1.268 2.866-1.322 6.223.231 8.985C.12 16.314.178 7.697 5.521 3.711a3.1 3.1 0 0 1 1.697-.62c2.532-.132 5.106.826 6.91 2.612-3.666.035-7.237 2.334-8.772 5.652"/><path fill="#26265a" d="M15.897 6.585C14.047 4.06 11.15 2.34 7.978 2.289c6.132-2.724 13.675 1.693 14.496 8.223a3.1 3.1 0 0 1-.298 1.77c-1.146 2.278-3.27 4.044-5.753 4.698a9.89 9.89 0 0 0-.527-10.395"/></svg>
